international/images/icons/commerce.svg

<svg xmlns="http://www.w3.org/2000/svg" viewBox="0 0 24 24"><path fill="#fff" d="M12 3a4 4 0 0 0-4 4 4 4 0 0 0 4 4 4 4 0 0 0 4-4 4 4 0 0 0-4-4zm0 11c-3.004 0-9 1.508-9 4.5v2.5h7.457l.668-4-.5-1 1.375-1 1.375 1-.5 1 .668 4h7.457v-2.5c0-2.992-5.996-4.5-9-4.5z"/></svg>

<svg xmlns="http://www.w3.org/2000/svg" viewBox="0 0 24 24">
    <path fill="white" d="M 12 3 A 4 4 0 0 0 8 7 A 4 4 0 0 0 12 11 A 4 4 0 0 0 16 7 A 4 4 0 0 0 12 3 z M 12 14 C 8.996 14 3 15.508 3 18.5 L 3 21 L 10.457031 21 L 11.125 17 L 10.625 16 L 12 15 L 13.375 16 L 12.875 17 L 13.542969 21 L 21 21 L 21 18.5 C 21 15.508 15.004 14 12 14 z"></path>
</svg>
